src/images/Veranstaltungen.svg

<svg width="1300" height="1300" viewBox="0 0 1300 1300" fill="none" xmlns="http://www.w3.org/2000/svg">
<rect x="96" y="375.999" width="960" height="653" rx="173" fill="url(#paint0_linear)"/>
<path d="M427.3 139.377C418.5 142.277 411.5 148.377 407.6 156.877C405.5 161.377 405.5 162.677 405 249.477L404.5 337.477L401.9 342.977C392.3 363.177 366.2 367.977 350.6 352.377C348.5 350.177 345.5 345.977 344.1 342.977L341.5 337.477L341 287.277L340.5 237.177L337.5 232.777C335.8 230.477 332.4 227.377 330 225.977L325.5 223.477L273.1 223.177C239.1 222.977 218.9 223.277 215.6 223.977C200.4 227.077 188 238.177 183.1 252.777L181 258.877V554.977C181 821.577 181.2 851.877 182.6 858.777C186 875.177 192.8 888.377 204.4 900.777C215.4 912.477 229.4 920.677 246.2 925.177L254.5 927.377L421.8 927.677L589.2 928.077L588.3 918.277C587.3 905.677 587.3 864.277 588.3 851.677L589.2 841.977H437.3C330.5 841.977 284.3 841.677 281.5 840.877C276.3 839.477 268.3 831.377 267.5 826.777C267.2 824.977 267.1 739.477 267.2 636.877L267.5 450.377L270.3 446.077C272.3 443.177 274.7 441.077 278.3 439.377L283.5 436.977H575.9H868.4L872.7 439.077C878.1 441.677 882.5 446.977 883.9 452.577C884.6 455.377 885 472.677 885 501.477V546.177L894.8 545.277C907.4 544.177 947.6 544.277 960.8 545.377L971 546.177V406.377C971 314.677 970.6 264.277 969.9 259.977C967.8 246.477 959.3 234.177 948.1 228.577C937.3 223.077 936.3 222.977 874.3 222.977H817.1L814.3 220.577L811.5 218.177L810.9 190.777C810.2 158.477 809.8 156.777 801.1 147.877C785 131.577 758.9 136.077 749.2 156.777L746.5 162.477L746 250.477C745.5 331.877 745.4 338.777 743.7 342.377C740.8 348.877 735.5 354.377 728.8 357.977C723.1 361.077 721.7 361.377 714.5 361.377C708.5 361.377 705.3 360.877 701.9 359.277C695.6 356.477 689.4 350.577 686.2 344.577L683.5 339.477L683 289.477C682.5 240.677 682.4 239.377 680.3 235.477C679.2 233.277 676.9 230.277 675.3 228.777C669 222.777 672.5 222.977 569.9 222.977H476L472.8 220.077L469.5 217.177L469 189.277L468.5 161.477L465.7 155.777C462.5 149.277 456.7 143.577 450.1 140.677C444.3 138.177 433.1 137.477 427.3 139.377Z" fill="#374649"/>
<path d="M904.7 608.077C870.7 611.077 838.3 619.977 807.5 634.877C776.9 649.677 756.7 664.077 732 688.877C704.9 716.077 688.4 739.877 673.5 773.477C648.7 829.677 643.5 893.077 659 953.377C671.5 1002.38 695.5 1044.38 731.5 1080.48C773.7 1122.88 825.7 1149.28 886.3 1159.18C904.4 1162.18 948.4 1162.38 966 1159.68C1026.9 1150.18 1078.1 1124.98 1120.9 1083.58C1165.3 1040.38 1192.7 986.577 1202.7 922.977C1205.2 906.977 1205.2 863.377 1202.8 847.277C1190.4 766.077 1147.5 697.877 1080.5 653.177C1029.7 619.277 965 602.677 904.7 608.077ZM1055.7 782.077C1062.8 785.477 1067.3 790.177 1070.8 797.777C1072.9 802.577 1073.2 804.177 1072.8 811.777C1072.5 817.377 1071.7 821.677 1070.6 823.777C1066.8 831.077 940.2 998.577 934.9 1003.48C924.2 1013.18 910.6 1018.78 895.9 1019.68C883.8 1020.38 874 1018.38 862.7 1012.78C854.9 1008.88 852.8 1006.98 817.4 971.777C791.4 945.977 779.4 933.277 777.4 929.677C774.8 924.977 774.5 923.577 774.5 914.977C774.5 906.977 774.9 904.777 776.8 901.177C780.3 894.577 785.6 889.277 791.8 886.277C796.5 883.977 798.8 883.477 805 883.477C818.9 883.477 818.2 882.977 857.2 921.877C887.3 951.777 892.2 956.177 893.4 954.977C894.1 954.177 922.4 916.477 956.3 871.377C990.1 826.177 1018.9 788.177 1020.2 786.977C1026.5 781.077 1036.3 777.777 1045.5 778.777C1047.7 778.977 1052.3 780.477 1055.7 782.077Z" fill="#374649"/>
<defs>
<linearGradient id="paint0_linear" x1="610.77" y1="416.499" x2="1164.32" y2="1128.26" gradientUnits="userSpaceOnUse">
<stop stop-color="#FAFAED"/>
<stop offset="1" stop-color="white" stop-opacity="0"/>
</linearGradient>
</defs>
</svg>

<svg fill="none" height="1300" viewBox="0 0 1300 1300" width="1300" xmlns="http://www.w3.org/2000/svg" xmlns:xlink="http://www.w3.org/1999/xlink"><linearGradient id="a" gradientUnits="userSpaceOnUse" x1="610.77" x2="1164.32" y1="416.499" y2="1128.26"><stop offset="0" stop-color="#fafaed"/><stop offset="1" stop-color="#fff" stop-opacity="0"/></linearGradient><rect fill="url(#a)" height="653" rx="173" width="960" x="96" y="375.999"/><g fill="#374649"><path d="m427.3 139.377c-8.8 2.9-15.8 9-19.7 17.5-2.1 4.5-2.1 5.8-2.6 92.6l-.5 88-2.6 5.5c-9.6 20.2-35.7 25-51.3 9.4-2.1-2.2-5.1-6.4-6.5-9.4l-2.6-5.5-.5-50.2-.5-50.1-3-4.4c-1.7-2.3-5.1-5.4-7.5-6.8l-4.5-2.5-52.4-.3c-34-.2-54.2.1-57.5.8-15.2 3.1-27.6 14.2-32.5 28.8l-2.1 6.1v296.1c0 266.6.2 296.9 1.6 303.8 3.4 16.4 10.2 29.6 21.8 42 11 11.7 25 19.9 41.8 24.4l8.3 2.2 167.3.3 167.4.4-.9-9.8c-1-12.6-1-54 0-66.6l.9-9.7h-151.9c-106.8 0-153-.3-155.8-1.1-5.2-1.4-13.2-9.5-14-14.1-.3-1.8-.4-87.3-.3-189.9l.3-186.5 2.8-4.3c2-2.9 4.4-5 8-6.7l5.2-2.4h292.4 292.5l4.3 2.1c5.4 2.6 9.8 7.9 11.2 13.5.7 2.8 1.1 20.1 1.1 48.9v44.7l9.8-.9c12.6-1.1 52.8-1 66 .1l10.2.8v-139.8c0-91.7-.4-142.1-1.1-146.4-2.1-13.5-10.6-25.8-21.8-31.4-10.8-5.5-11.8-5.6-73.8-5.6h-57.2l-2.8-2.4-2.8-2.4-.6-27.4c-.7-32.3-1.1-34-9.8-42.9-16.1-16.3-42.2-11.8-51.9 8.9l-2.7 5.7-.5 88c-.5 81.4-.6 88.3-2.3 91.9-2.9 6.5-8.2 12-14.9 15.6-5.7 3.1-7.1 3.4-14.3 3.4-6 0-9.2-.5-12.6-2.1-6.3-2.8-12.5-8.7-15.7-14.7l-2.7-5.1-.5-50c-.5-48.8-.6-50.1-2.7-54-1.1-2.2-3.4-5.2-5-6.7-6.3-6-2.8-5.8-105.4-5.8h-93.9l-3.2-2.9-3.3-2.9-.5-27.9-.5-27.8-2.8-5.7c-3.2-6.5-9-12.2-15.6-15.1-5.8-2.5-17-3.2-22.8-1.3z"/><path d="m904.7 608.077c-34 3-66.4 11.9-97.2 26.8-30.6 14.8-50.8 29.2-75.5 54-27.1 27.2-43.6 51-58.5 84.6-24.8 56.2-30 119.6-14.5 179.9 12.5 49.003 36.5 91.003 72.5 127.103 42.2 42.4 94.2 68.8 154.8 78.7 18.1 3 62.1 3.2 79.7.5 60.9-9.5 112.1-34.7 154.9-76.1 44.4-43.2 71.8-97.003 81.8-160.603 2.5-16 2.5-59.6.1-75.7-12.4-81.2-55.3-149.4-122.3-194.1-50.8-33.9-115.5-50.5-175.8-45.1zm151 174c7.1 3.4 11.6 8.1 15.1 15.7 2.1 4.8 2.4 6.4 2 14-.3 5.6-1.1 9.9-2.2 12-3.8 7.3-130.4 174.8-135.7 179.703-10.7 9.7-24.3 15.3-39 16.2-12.1.7-21.9-1.3-33.2-6.9-7.8-3.9-9.9-5.8-45.3-41.003-26-25.8-38-38.5-40-42.1-2.6-4.7-2.9-6.1-2.9-14.7 0-8 .4-10.2 2.3-13.8 3.5-6.6 8.8-11.9 15-14.9 4.7-2.3 7-2.8 13.2-2.8 13.9 0 13.2-.5 52.2 38.4 30.1 29.9 35 34.3 36.2 33.1.7-.8 29-38.5 62.9-83.6 33.8-45.2 62.6-83.2 63.9-84.4 6.3-5.9 16.1-9.2 25.3-8.2 2.2.2 6.8 1.7 10.2 3.3z"/></g></svg>
